X: 25863
T: Mathematician's
R: hornpipe
M: 4/4
K: Amajor
ED|:CD ^DE cA EC|DE ^EF dA FA|Gf ed cB AG|
(3AcB (3AGF (3EFE (3DCB,|CD ^DE (3cBA (3GFE|DE ^EF (3dcB (3AGF|
(3Gfe (3dcB (3Aag (3fed|1 (3cBA (3GAB A2 ED:|2 (3cBA (3GAB A2 g2||
ae cA EC A,=G|FA ^AB f^d B^a|bf ^dB F^D B,A,|
G,B, EG ^AB gb|c'a ec AE CE|DF Ad fa (3d'af|
(3eba (3gfe (3dBG (3DCB,|(3A,CE (3Aga A,2 g2|ae cA EC A,=G|
FA ^AB f^d B^a|bf ^dB B,C B,A,|G,B, EG ^AB gb|
c'a ec AE CE|DF Ad fa (3d'af|(3eba (3gfe (3dBG (3DCB,|A,2 a2 A,4||

